build/images/fb-icons/goto.svg

<svg xmlns="http://www.w3.org/2000/svg" preserveAspectRatio="xMidYMid" width="15" height="15" viewBox="0 0 15 15"><defs><style>.cls-1{fill:#b4b4b4;fill-rule:evenodd}</style></defs><path d="M13.333 13.333H1.667V1.667h4.102V0H1.667C.75 0 0 .75 0 1.667v11.666C0 14.25.75 15 1.667 15h11.666C14.25 15 15 14.25 15 13.333V9.231h-1.667v4.102zM9.167 0v1.667h3L7.462 6.372l1.166 1.166 4.705-4.705v3H15V0H9.167z" class="cls-1"/></svg>

<svg xmlns="http://www.w3.org/2000/svg" xmlns:xlink="http://www.w3.org/1999/xlink" preserveAspectRatio="xMidYMid" width="15" height="15" viewBox="0 0 15 15">
  <defs>
    <style>
      .cls-1 {
        fill: #b4b4b4;
        fill-rule: evenodd;
      }
    </style>
  </defs>
  <path d="M13.333,13.333 L1.667,13.333 L1.667,1.667 L5.769,1.667 L5.769,-0.000 L1.667,-0.000 C0.750,-0.000 -0.000,0.750 -0.000,1.667 L-0.000,13.333 C-0.000,14.250 0.750,15.000 1.667,15.000 L13.333,15.000 C14.250,15.000 15.000,14.250 15.000,13.333 L15.000,9.231 L13.333,9.231 L13.333,13.333 ZM9.167,-0.000 L9.167,1.667 L12.167,1.667 L7.462,6.372 L8.628,7.538 L13.333,2.833 L13.333,5.833 L15.000,5.833 L15.000,-0.000 L9.167,-0.000 Z" class="cls-1"/>
</svg>
